X:28
T:Alasdruim's March
T:M\'airse\'ail Alasdruim
R:march
H:See also #19, #26, #27
D:Sean Keane: Jig It in Style
D:P\'adraig Rynne: Bye a While
Z:id:hn-march-28
M:6/8
L:1/8
Q:3/8=110
K:G
ABG AGF | G2g fdc | ABG AGF | Ggf d2c |
ABG AGF | G2g fdc | A~B2 cBc | dgf d2c :|
|: Aff agg | age fdc | Aff agg | agf d2c |
Aff agg | bag fde | fef gfg | a2g fdc :|
P:variations
|: BAG AGF | G2g fdc | BAG AGF | Ggf d2c |
BAG AGF | G2g fdc | BAB cBc | Ggf d2c :|
|: Aff agg | agf dec | Aff agg | agf d2c |
Aff agg | bag fde | f2d gfg | agf d2c :| 

